icons/1_Primary/Raindrop.io.svg

<svg xmlns="http://www.w3.org/2000/svg" width="1024" height="1024" fill="none">
   <g clip-path="url(#a)">
      <path fill="#728DBE" d="M512 1024c282.77 0 512-229.23 512-512S794.77 0 512 0 0 229.23 0 512s229.23 512 512 512Z"/>
      <path fill="#fff" d="m376.78 600.29 126.9 116.45H368c-79.53 0-144-64.47-144-144 0-58.81 35.32-109.26 85.85-131.61-.32 4.4-.52 8.33-.52 12.34 0 52.67 21.1 102.19 59.41 139.42 2.51 2.43 5.14 4.85 8.05 7.4h-.01Zm337.38-159.13c.28 3.83.52 8.05.52 12.3 0 45.3-16.16 89.51-45.51 124.47-4.34 5.18-9.03 10.21-13.92 14.96-2.55 2.48-5.26 4.97-8.03 7.4l-126.9 116.46H656c77.94 0 141.73-62 143.95-139.91 1.71-60.23-33.89-112.72-85.79-135.68Zm-202.18 90.82c7.24-25.77 21.33-49.16 41.27-68 29.05-27.45 67.05-41.92 107.01-40.8 16.06.46 32.01 3.59 47.46 9.3-4.71-41.78-23.41-82.35-56.38-114.39-76.94-74.78-201.73-74.78-278.69 0-32.96 32.03-51.66 72.59-56.37 114.36 16.74-6.19 34.13-9.33 51.72-9.33 68.38 0 126.19 46.11 143.99 108.87l-.01-.01Zm-143.99-97.61c-15.96 0-31.75 2.8-46.99 8.33-.27 3.86-.44 7.32-.44 10.78 0 49.61 19.89 96.25 56 131.35 2.38 2.31 4.89 4.61 7.67 7.05l.1.09 122.04 111.99V572.75c0-76.3-62.08-138.38-138.38-138.38Zm291.94.06c-1.33-.04-2.66-.06-3.99-.06-74.5 0-136.14 59.51-138.27 134.45l-.06 3.98v131.16l122.14-112.08c2.65-2.32 5.22-4.69 7.65-7.05 4.62-4.49 9.04-9.24 13.14-14.12 27.65-32.94 42.87-74.57 42.88-117.23 0-3.64-.2-7.33-.44-10.74-14.04-5.1-28.51-7.89-43.05-8.3v-.01Z"/>
   </g>
   <defs>
      <clipPath id="a">
         <path fill="#fff" d="M0 0h1024v1024H0z"/>
      </clipPath>
   </defs>
</svg>

<svg width="1024" height="1024" viewBox="0 0 1024 1024" fill="none" xmlns="http://www.w3.org/2000/svg">
<g clip-path="url(#clip0_2_3285)">
<path d="M512 1024C794.77 1024 1024 794.77 1024 512C1024 229.23 794.77 0 512 0C229.23 0 0 229.23 0 512C0 794.77 229.23 1024 512 1024Z" fill="#728DBE"/>
<path d="M376.78 600.29L503.68 716.74H368C288.47 716.74 224 652.27 224 572.74C224 513.93 259.32 463.48 309.85 441.13C309.53 445.53 309.33 449.46 309.33 453.47C309.33 506.14 330.43 555.66 368.74 592.89C371.25 595.32 373.88 597.74 376.79 600.29H376.78ZM714.16 441.16C714.44 444.99 714.68 449.21 714.68 453.46C714.68 498.76 698.52 542.97 669.17 577.93C664.83 583.11 660.14 588.14 655.25 592.89C652.7 595.37 649.99 597.86 647.22 600.29L520.32 716.75H656C733.94 716.75 797.73 654.75 799.95 576.84C801.66 516.61 766.06 464.12 714.16 441.16ZM511.98 531.98C519.22 506.21 533.31 482.82 553.25 463.98C582.3 436.53 620.3 422.06 660.26 423.18C676.32 423.64 692.27 426.77 707.72 432.48C703.01 390.7 684.31 350.13 651.34 318.09C574.4 243.31 449.61 243.31 372.65 318.09C339.69 350.12 320.99 390.68 316.28 432.45C333.02 426.26 350.41 423.12 368 423.12C436.38 423.12 494.19 469.23 511.99 531.99L511.98 531.98ZM367.99 434.37C352.03 434.37 336.24 437.17 321 442.7C320.73 446.56 320.56 450.02 320.56 453.48C320.56 503.09 340.45 549.73 376.56 584.83C378.94 587.14 381.45 589.44 384.23 591.88L384.33 591.97L506.37 703.96V572.75C506.37 496.45 444.29 434.37 367.99 434.37ZM659.93 434.43C658.6 434.39 657.27 434.37 655.94 434.37C581.44 434.37 519.8 493.88 517.67 568.82L517.61 572.8V703.96L639.75 591.88C642.4 589.56 644.97 587.19 647.4 584.83C652.02 580.34 656.44 575.59 660.54 570.71C688.19 537.77 703.41 496.14 703.42 453.48C703.42 449.84 703.22 446.15 702.98 442.74C688.94 437.64 674.47 434.85 659.93 434.44V434.43Z" fill="white"/>
</g>
<defs>
<clipPath id="clip0_2_3285">
<rect width="1024" height="1024" fill="white"/>
</clipPath>
</defs>
</svg>
